src/assets/outline/HomeHashtag.svg

<svg width="24" height="24" viewBox="0 0 24 24"  xmlns="http://www.w3.org/2000/svg">
<path d="M17.79 22.7402H6.21C3.47 22.7402 1.25 20.5102 1.25 17.7702V10.3602C1.25 9.00021 2.09 7.29021 3.17 6.45021L8.56 2.25021C10.18 0.990208 12.77 0.930208 14.45 2.11021L20.63 6.44021C21.82 7.27021 22.75 9.05021 22.75 10.5002V17.7802C22.75 20.5102 20.53 22.7402 17.79 22.7402ZM9.48 3.43021L4.09 7.63021C3.38 8.19021 2.75 9.46021 2.75 10.3602V17.7702C2.75 19.6802 4.3 21.2402 6.21 21.2402H17.79C19.7 21.2402 21.25 19.6902 21.25 17.7802V10.5002C21.25 9.54021 20.56 8.21021 19.77 7.67021L13.59 3.34021C12.45 2.54021 10.57 2.58021 9.48 3.43021Z" />
<path d="M13.5 18.75H10.5C8.43 18.75 6.75 17.07 6.75 15V12C6.75 9.93 8.43 8.25 10.5 8.25H13.5C15.57 8.25 17.25 9.93 17.25 12V15C17.25 17.07 15.57 18.75 13.5 18.75ZM10.5 9.75C9.26 9.75 8.25 10.76 8.25 12V15C8.25 16.24 9.26 17.25 10.5 17.25H13.5C14.74 17.25 15.75 16.24 15.75 15V12C15.75 10.76 14.74 9.75 13.5 9.75H10.5Z" />
<path d="M12 18.75C11.59 18.75 11.25 18.41 11.25 18V9C11.25 8.59 11.59 8.25 12 8.25C12.41 8.25 12.75 8.59 12.75 9V18C12.75 18.41 12.41 18.75 12 18.75Z" />
<path d="M16.5 14.25H7.5C7.09 14.25 6.75 13.91 6.75 13.5C6.75 13.09 7.09 12.75 7.5 12.75H16.5C16.91 12.75 17.25 13.09 17.25 13.5C17.25 13.91 16.91 14.25 16.5 14.25Z" />
</svg>

<?xml version="1.0" encoding="UTF-8"?>
<svg width="24" height="24" viewBox="0 0 24 24" xmlns="http://www.w3.org/2000/svg">
 <path d="m17.79 22.74h-11.58c-2.74 0-4.96-2.23-4.96-4.97v-7.41c0-1.36 0.84-3.07 1.92-3.91l5.39-4.2c1.62-1.26 4.21-1.32 5.89-0.14l6.18 4.33c1.19 0.83 2.12 2.61 2.12 4.06v7.28c0 2.73-2.22 4.96-4.96 4.96zm-8.31-19.31-5.39 4.2c-0.71 0.56-1.34 1.83-1.34 2.73v7.41c0 1.91 1.55 3.47 3.46 3.47h11.58c1.91 0 3.46-1.55 3.46-3.46v-7.28c0-0.95999-0.69-2.29-1.48-2.83l-6.18-4.33c-1.14-0.8-3.02-0.76-4.11 0.09z"/>
 <path d="m13.5 18.75h-3c-2.07 0-3.75-1.68-3.75-3.75v-3c0-2.07 1.68-3.75 3.75-3.75h3c2.07 0 3.75 1.68 3.75 3.75v3c0 2.07-1.68 3.75-3.75 3.75zm-3-9c-1.24 0-2.25 1.01-2.25 2.25v3c0 1.24 1.01 2.25 2.25 2.25h3c1.24 0 2.25-1.01 2.25-2.25v-3c0-1.24-1.01-2.25-2.25-2.25h-3z"/>
 <path d="m12 18.75c-0.41 0-0.75-0.34-0.75-0.75v-9c0-0.41 0.34-0.75 0.75-0.75s0.75 0.34 0.75 0.75v9c0 0.41-0.34 0.75-0.75 0.75z"/>
 <path d="m16.5 14.25h-9c-0.41 0-0.75-0.34-0.75-0.75s0.34-0.75 0.75-0.75h9c0.41 0 0.75 0.34 0.75 0.75s-0.34 0.75-0.75 0.75z"/>
</svg>
